docs/img/main/program/download-icon.svg

<svg width="33" height="52" viewBox="0 0 33 52" fill="none" xmlns="http://www.w3.org/2000/svg">
<path d="M5.14453 42.7998H10.2618V37.7598H5.14453V42.7998ZM6.85039 39.4398H8.55616V41.1198H6.85039V39.4398Z" fill="black"/>
<path d="M5.14453 34.3999H10.2618V29.3599H5.14453V34.3999ZM6.85039 31.0399H8.55616V32.7199H6.85039V31.0399Z" fill="black"/>
<path d="M16.2317 7.52024C16.7028 7.52024 17.0846 7.14418 17.0846 6.68029C17.0846 6.21639 16.7028 5.84033 16.2317 5.84033C15.7607 5.84033 15.3789 6.21639 15.3789 6.68029C15.3789 7.14418 15.7607 7.52024 16.2317 7.52024Z" fill="black"/>
<path d="M27.32 22.6401H13.6738V24.3201H27.32V22.6401Z" fill="black"/>
<path d="M29.0254 9.19981H27.3196C27.3196 7.35176 25.7844 5.83981 23.9081 5.83981H22.2023C22.2023 2.98376 19.8142 0.799805 17.0851 0.799805H15.3793C12.4794 0.799805 10.262 2.98376 10.262 5.83981H8.5562C6.67981 5.83981 5.14466 7.35176 5.14466 9.19981H3.43889C1.56249 9.19981 0.0273438 10.7118 0.0273438 12.5598V47.8398C0.0273438 49.6878 1.56249 51.1998 3.43889 51.1998H29.0255C30.9018 51.1998 32.437 49.6878 32.437 47.8398V12.5598C32.4369 10.7118 30.9018 9.19981 29.0254 9.19981ZM6.85043 9.19981C6.85043 8.1918 7.53274 7.5198 8.5562 7.5198H11.9677V5.83981C11.9677 3.99176 13.5029 2.4798 15.3793 2.4798H17.0851C18.9614 2.4798 20.4966 3.99176 20.4966 5.83981V7.5198H23.9081C24.9316 7.5198 25.6139 8.1918 25.6139 9.19981V10.8798C25.6139 11.8878 24.9316 12.5598 23.9081 12.5598H8.55611C7.53265 12.5598 6.85034 11.8878 6.85034 10.8798V9.19981H6.85043ZM30.7312 47.8398C30.7312 48.8478 30.0489 49.5198 29.0255 49.5198H3.43889C2.58605 49.5198 1.73312 48.8478 1.73312 47.8398V12.5598C1.73312 11.5518 2.41542 10.8798 3.43889 10.8798H5.14466C5.14466 12.7278 6.67981 14.2398 8.5562 14.2398H23.9081C25.7845 14.2398 27.3197 12.7278 27.3197 10.8798H29.0255C29.8783 10.8798 30.7312 11.5518 30.7312 12.5598V47.8398Z" fill="black"/>
<path d="M27.32 31.04H13.6738V32.72H27.32V31.04Z" fill="black"/>
<path d="M27.32 39.4404H13.6738V41.1204H27.32V39.4404Z" fill="black"/>
<path d="M5.14453 26H10.2618V20.96H5.14453V26ZM6.85039 22.64H8.55616V24.32H6.85039V22.64Z" fill="black"/>
</svg>

<svg width="33" height="52" fill="none" xmlns="http://www.w3.org/2000/svg"><path d="M5.145 42.8h5.117v-5.04H5.145v5.04zm1.705-3.36h1.706v1.68H6.85v-1.68zM5.145 34.4h5.117v-5.04H5.145v5.04zm1.705-3.36h1.706v1.68H6.85v-1.68zm9.382-23.52a.846.846 0 0 0 .853-.84.846.846 0 0 0-.853-.84.846.846 0 0 0-.853.84c0 .464.382.84.853.84zM27.32 22.64H13.674v1.68H27.32v-1.68z" fill="#000"/><path d="M29.025 9.2H27.32c0-1.848-1.536-3.36-3.412-3.36h-1.706c0-2.856-2.388-5.04-5.117-5.04H15.38c-2.9 0-5.117 2.184-5.117 5.04H8.556c-1.876 0-3.411 1.512-3.411 3.36H3.439C1.562 9.2.027 10.712.027 12.56v35.28c0 1.848 1.535 3.36 3.412 3.36h25.587c1.876 0 3.411-1.512 3.411-3.36V12.56c0-1.848-1.535-3.36-3.412-3.36zM6.85 9.2c0-1.008.683-1.68 1.706-1.68h3.412V5.84c0-1.848 1.535-3.36 3.411-3.36h1.706c1.876 0 3.412 1.512 3.412 3.36v1.68h3.411c1.024 0 1.706.672 1.706 1.68v1.68c0 1.008-.682 1.68-1.706 1.68H8.556c-1.023 0-1.706-.672-1.706-1.68V9.2zm23.881 38.64c0 1.008-.682 1.68-1.706 1.68H3.44c-.853 0-1.706-.672-1.706-1.68V12.56c0-1.008.682-1.68 1.706-1.68h1.706c0 1.848 1.535 3.36 3.411 3.36h15.352c1.877 0 3.412-1.512 3.412-3.36h1.706c.852 0 1.705.672 1.705 1.68v35.28z" fill="#000"/><path d="M27.32 31.04H13.674v1.68H27.32v-1.68zm0 8.4H13.674v1.68H27.32v-1.68zM5.145 26h5.117v-5.04H5.145V26zm1.705-3.36h1.706v1.68H6.85v-1.68z" fill="#000"/></svg>
